svgs/sharp-solid/film-canister.svg

<svg xmlns="http://www.w3.org/2000/svg" viewBox="0 0 576 512"><!--! Font Awesome Pro 6.6.0 by @fontawesome - https://fontawesome.com License - https://fontawesome.com/license (Commercial License) Copyright 2024 Fonticons, Inc. --><path d="M256 0L96 0l0 32L32 32 0 32 0 96l32 0 0 352L0 448l0 64 32 0 288 0 32 0 0-64-32 0 0-352 32 0 0-64-32 0-64 0 0-32zm96 128l0 288 160 0 0-96 64 0 0-192-224 0zm88 40l0 48-48 0 0-48 48 0zm48 0l48 0 0 48-48 0 0-48zM440 328l0 48-48 0 0-48 48 0z"/></svg>

<svg xmlns="http://www.w3.org/2000/svg" viewBox="0 0 576 512"><!--! Font Awesome Pro 6.4.0 by @fontawesome - https://fontawesome.com License - https://fontawesome.com/license (Commercial License) Copyright 2023 Fonticons, Inc. --><path d="M256 0H96V32H32 0V96H32V448H0v64H32 320h32V448H320V96h32V32H320 256V0zm96 128V416H512V320h64V128H352zm88 40v48H392V168h48zm48 0h48v48H488V168zM440 328v48H392V328h48z"/></svg>
